X: 28068
T: Mr Jason Lester's
R: reel
M: 4/4
K: Dmajor
AG|:"D"FDFA d2 dc|"G"BAGF "A"EGFE|"D"FDFA d2 dc|"G"BcdB "A7"A2 AG|
"D"FDFA d2 dc|"G"BcdB "A"AGFE|"D"FEFG A2 AG|1 "D"FG"A7"EF "D"D2 AG:|2 "D"FG"A7"EF "D"D2 dA||
|:"D"FAdA d2 dc|"G"Bcde "A"cBAG|"D"FDFG "A"A2 AG|"A7"GABc d2 ef|
"D"fd"G"gd "D"ad"G"bd|"D"agfe "A7"dcBA|"D"fd"G"gd "D"a2 ag|1 "D"fg"A"ef "D"d2 dA:|2 "D"fg"A"ef d4||

